images/svg/site-logo.svg

<svg width="59" height="20" viewBox="0 0 59 20" fill="none" xmlns="http://www.w3.org/2000/svg">
<path d="M0 19.5676V0.216198H6.70257C7.53798 0.210424 8.36748 0.356677 9.15054 0.647812C9.89243 0.921593 10.5756 1.33379 11.1637 1.86249C11.7612 2.4057 12.2363 3.06984 12.5574 3.81079C12.8785 4.55174 13.0383 5.35255 13.0262 6.16C13.0346 6.96286 12.873 7.75841 12.552 8.49435C12.231 9.23029 11.7578 9.88996 11.1637 10.43C10.5757 10.9589 9.89254 11.3711 9.15054 11.6447C8.36804 11.9359 7.53911 12.0824 6.70419 12.0771H3.05369V19.5635L0 19.5676ZM6.78355 9.16186C7.24674 9.17085 7.70681 9.08429 8.13507 8.90759C8.51251 8.74953 8.85304 8.51487 9.13515 8.21847C9.40158 7.93659 9.61231 7.60689 9.75626 7.24673C9.89699 6.90357 9.97039 6.53655 9.97247 6.16567C9.97004 5.39418 9.67012 4.65337 9.13515 4.09748C8.82929 3.78664 8.46334 3.54133 8.05961 3.37649C7.65587 3.21166 7.2228 3.13075 6.78678 3.1387H3.05369V9.1651L6.78355 9.16186Z" fill="#191919"/>
<path d="M15.4045 6.3244V19.5676H18.4047V6.3244H15.4045Z" fill="#191919"/>
<path d="M18.9109 2.02445C18.9153 2.28999 18.8662 2.5537 18.7665 2.79983C18.6667 3.04596 18.5183 3.26945 18.3303 3.45695C18.1479 3.64913 17.9274 3.80123 17.683 3.90356C17.4386 4.00589 17.1756 4.05622 16.9107 4.05133V-6.27426e-06C17.1756 -0.00469046 17.4386 0.0457264 17.6829 0.148046C17.9273 0.250366 18.1477 0.402356 18.3303 0.594374C18.5179 0.781671 18.666 1.00478 18.7658 1.25045C18.8655 1.49612 18.9149 1.75933 18.9109 2.02445Z" fill="#35AF39"/>
<path d="M16.9082 -3.17022e-06V4.05377C16.6399 4.05996 16.3732 4.01033 16.1251 3.90801C15.877 3.80569 15.6528 3.65292 15.4668 3.45939C15.2779 3.27192 15.1288 3.04814 15.0286 2.80154C14.9284 2.55493 14.8791 2.2906 14.8838 2.02445C14.88 1.75915 14.9296 1.49579 15.0298 1.25009C15.13 1.00439 15.2786 0.781388 15.4668 0.594377C15.653 0.401162 15.8772 0.248601 16.1253 0.146305C16.3734 0.0440089 16.64 -0.00580651 16.9082 -3.17022e-06Z" fill="#00BAFC"/>
<path d="M24.9996 12.8375L20.4316 6.3244H23.9185L26.7827 10.5134H26.8637L29.536 6.3244H33.1574L28.5359 12.8375L33.2383 19.5676H29.6753L26.8103 15.2433H26.7293L23.8886 19.5676H20.3506L24.9996 12.8375Z" fill="#191919"/>
<path d="M46.837 16.4054C46.267 17.4441 45.4495 18.3261 44.4571 18.9732C43.4313 19.6588 42.1705 20.0016 40.6746 20.0016C39.7342 20.0115 38.8015 19.8322 37.9318 19.4745C37.1138 19.1368 36.3733 18.6356 35.7559 18.0015C35.1359 17.3602 34.649 16.6025 34.3234 15.7721C33.9729 14.8722 33.7986 13.9133 33.81 12.9476C33.8047 12.0202 33.9694 11.0997 34.2959 10.2316C34.6033 9.40335 35.0664 8.64165 35.6604 7.98769C36.2804 7.31507 37.0354 6.78088 37.876 6.42003C38.7166 6.05917 39.6238 5.87979 40.5385 5.89359C41.5642 5.89359 42.4788 6.06473 43.2821 6.407C44.0578 6.73143 44.754 7.22015 45.3227 7.8395C45.8983 8.48222 46.3353 9.23672 46.6062 10.0559C46.9111 10.9693 47.0619 11.9272 47.0524 12.8901V13.133C47.0351 13.2129 47.0259 13.2943 47.0249 13.376C47.0072 13.4467 46.9983 13.5193 46.9981 13.5922H36.8103C36.8481 14.1675 37.0044 14.7288 37.2694 15.2409C37.5017 15.6851 37.8183 16.0798 38.2015 16.4029C38.5639 16.7056 38.9816 16.935 39.4315 17.0783C39.8589 17.2192 40.3056 17.2921 40.7555 17.2945C41.6193 17.2945 42.3311 17.0875 42.8909 16.6734C43.449 16.2587 43.9173 15.7354 44.2676 15.1348L46.837 16.4054ZM44.0522 11.2973C44.0045 10.986 43.9183 10.6819 43.7955 10.3919C43.6524 10.0474 43.4411 9.73528 43.1744 9.47445C42.8604 9.17221 42.4941 8.92964 42.0933 8.7586C41.6522 8.56048 41.1164 8.46141 40.4859 8.46141C39.6221 8.46141 38.8787 8.71811 38.2557 9.23152C37.6328 9.74492 37.2138 10.4335 36.999 11.2973H44.0522Z" fill="#191919"/>
<path d="M49.323 6.32439H52.1572V8.32455H52.3192C52.4896 7.97311 52.7142 7.65066 52.9848 7.36901C53.263 7.07159 53.5817 6.81481 53.9315 6.60619C54.2826 6.39788 54.6541 6.22586 55.0401 6.09279C55.4001 5.96384 55.7792 5.89596 56.1616 5.89197C56.5346 5.88498 56.9069 5.92608 57.2694 6.01424C57.5619 6.09067 57.8435 6.20386 58.1075 6.35111L57.2427 9.08089C57.0308 8.98692 56.8084 8.91894 56.5803 8.87844C56.2903 8.82969 55.9965 8.80692 55.7025 8.81042C55.2391 8.80503 54.7808 8.90761 54.3639 9.11004C53.9584 9.30937 53.5958 9.58611 53.2966 9.92468C52.9822 10.2826 52.7393 10.6974 52.5807 11.1466C52.408 11.6257 52.3211 12.1315 52.324 12.6407V19.5676H49.3279L49.323 6.32439Z" fill="#191919"/>
</svg>

<svg width="59" height="20" fill="none" xmlns="http://www.w3.org/2000/svg"><path d="M0 19.568V.216h6.703A6.888 6.888 0 0 1 9.15.648a6.245 6.245 0 0 1 2.013 1.214 5.692 5.692 0 0 1 1.862 4.298 5.69 5.69 0 0 1-1.862 4.27 6.237 6.237 0 0 1-2.013 1.215 6.889 6.889 0 0 1-2.447.432h-3.65v7.487L0 19.568ZM6.784 9.162c.463.009.923-.078 1.351-.254a2.958 2.958 0 0 0 1-.69c.267-.281.477-.611.621-.971.141-.343.214-.71.216-1.081a2.996 2.996 0 0 0-.837-2.069 3.213 3.213 0 0 0-2.348-.958H3.054v6.026l3.73-.003ZM15.405 6.324v13.244h3V6.324h-3Z" fill="#191919"/><path d="M18.91 2.024a1.978 1.978 0 0 1-.58 1.433 1.909 1.909 0 0 1-1.42.594V0a1.912 1.912 0 0 1 1.42.594 1.98 1.98 0 0 1 .58 1.43Z" fill="#35AF39"/><path d="M16.908 0v4.054a1.937 1.937 0 0 1-1.441-.595 1.974 1.974 0 0 1-.583-1.435 1.976 1.976 0 0 1 .583-1.43A1.943 1.943 0 0 1 16.908 0Z" fill="#00BAFC"/><path d="m25 12.838-4.568-6.514h3.487l2.864 4.19h.08l2.673-4.19h3.621l-4.621 6.514 4.702 6.73h-3.563l-2.865-4.325h-.08l-2.841 4.325H20.35L25 12.838ZM46.837 16.405a7.202 7.202 0 0 1-2.38 2.568c-1.026.686-2.287 1.029-3.782 1.029-.94.01-1.873-.17-2.743-.527A6.497 6.497 0 0 1 35.756 18a6.755 6.755 0 0 1-1.433-2.229 7.537 7.537 0 0 1-.513-2.824 7.592 7.592 0 0 1 .486-2.716c.307-.829.77-1.59 1.364-2.244a6.5 6.5 0 0 1 4.879-2.094c1.025 0 1.94.17 2.743.513a5.818 5.818 0 0 1 2.04 1.433 6.276 6.276 0 0 1 1.284 2.216c.305.913.456 1.871.446 2.834v.243c-.017.08-.026.161-.027.243a.9.9 0 0 0-.027.216H36.81c.038.575.194 1.137.46 1.649.232.444.548.839.931 1.162.363.303.78.532 1.23.675.428.141.875.214 1.325.216.863 0 1.575-.207 2.135-.62a5.148 5.148 0 0 0 1.377-1.54l2.569 1.271Zm-2.785-5.108a3.796 3.796 0 0 0-.257-.905 2.77 2.77 0 0 0-.62-.918 3.592 3.592 0 0 0-1.082-.715c-.44-.199-.977-.298-1.607-.298-.864 0-1.607.257-2.23.77-.623.514-1.042 1.203-1.257 2.066h7.053ZM49.323 6.324h2.834v2h.162c.17-.35.395-.673.666-.955a4.34 4.34 0 0 1 .947-.763c.35-.208.722-.38 1.108-.513.36-.13.74-.197 1.122-.201.373-.007.745.034 1.107.122.293.077.575.19.839.337l-.865 2.73a2.873 2.873 0 0 0-.663-.203 4.94 4.94 0 0 0-.877-.068 2.985 2.985 0 0 0-1.34.3c-.405.2-.767.476-1.066.815a3.736 3.736 0 0 0-.716 1.222c-.173.479-.26.985-.257 1.494v6.927h-2.996l-.005-13.244Z" fill="#191919"/></svg>
